X: 43205
T: Witch Island, The
R: slip jig
M: 9/8
K: Bminor
Bdc B2A F2A|B2B Bcd ecA|Bdc B2A F2A|G2G GFE FED:|
fdB Bdf e2d|fdB Bdf e2d|cAA EAA cde|dcB cBA B3:|

